!!!OTL: 150b. Der Mann ins Heu.
!!!ARE: Europa, Mitteleuropa, Deutschland
!!!SCT: E0150A
!!!TXL: @@DE
!!!YEM: Copyright 1995, estate of Helmut Schaffrath.
**kern	**text
*ICvox	*
*M6/8	*
*k[f#]	*
*G:	*
!LO:TX:a:t=Frei und leicht.	!
!LO:TX:a:t=Volksmel. des 18. u. 19. Jahrh	!
{8d	Es
=1	=1
4g	hatt'
8b	ein
(8.dd	Bau-
16b)	-er
8g	ein
=2	=2
4f#	ſchö-
8a	-nes
8.ccL	Weib,
16aJ}	.
{8f#	die
=3	=3
4g	blieb
8b	ſo
8.dd	ger-
16b	-ne
8g	ʒu
=4	=4
4.a	Haus.
4r}	.
{8d	Sie
=5	=5
4g	bat
8b	oft
(8.dd	ih-
16b)	.
8g	-ren
=6	=6
4f#	lie-
8a	-ben
8.ccL	Mann,
16aJ}	.
{8f#	er
=7	=7
4g	ſollte
8b	doch
8.dd	fah-
16b	-ren
8g	hin-
=8	=8
4.a	-aus.
4r}	.
{8b	Er
=9	=9
8.a	ſoll-
16a	-te
8a	doch
8a	fah-
8g	-ren
8a	ins
=10	=10
4.b	Heu,
4r}	.
{8b	Er
=11	=11
8.a	ſoll-
16a	-te
8a	doch
8a	fah-
8g	-ren
8a	ins
=12	=12
4.b	Heu,
4r}	.
{8b	er
=13	=13
8.a	ſoll-
16a	-te
8a	doch
8a	fah-
8g	-ren
8a	ins
=14	=14
8g	ha
8b/	ha
8dd}	ha,
{8g	ha
8b	ha
8dd	ha,
=15	=15
4ee	hei
8cc	dil-
4cc	-dei,
8ee	juch
=16	=16
4dd	hei-
8b	-ſa-
4b}	-ſa!
{8g	er
=17	=17
8.a	ſoll-
16b/	-te
8cc	doch
8d	fah-
8e	-ren
8f#	ins
=18	=18
4.g	Heu.
4r}	.
{8b	er
=19	=19
8.a	ſoll-
16a	-te
8a	doch
8a	fah-
8g	-ren
8a	ins
=20	=20
8g	ha
8b/	ha
8dd}	ha,
{8g	ha
8b	ha
8dd	ha,
=21	=21
4ee	hei
8cc	dil-
4cc	-dei,
8ee	juch
=22	=22
4dd	hei-
8b	-ſa-
4b}	-ſa!
{8g	er
=23	=23
8.a	ſoll-
16b/	-te
8cc	doch
8d	fah-
8e	-ren
8f#	ins
=24	=24
4.g	Heu.
4r}	.
==	==
!!!AGN: erzaehlendes Volks - Lied, Scherz, Schwank, betrogener Ehemann, Ballade ?
!!!ONB: ESAC (Essen Associative Code) Database: ERK1
!!!AMT: compound duple
!!!AIN: vox
!!!EED: Helmut Schaffrath
!!!EEV: 1.0
!!!GTL: Schwaenke in Liedform (scherzhafte Erzaehlungen, mitunter satirisch)
!!!URL-scan: https://rosdok.uni-rostock.de/mcrviewer/recordIdentifier/rosdok_ppn745146120/iview2/phys_0551.iview2?x=0&y=2017.6980994869955&scale=0.6828302752574625&rotation=0&layout=singlePageLayout
!!!ENC: Anna Maria Matuszewska
!!!EEV: 2024/04/12
*-	*-
